!! 00000] TT[WS
!!!OTL: FunÅ sidahen
!!!ARE: Asia, China, Shanxi Cuoquan
!! Ethnic Group: Han
!! WII, 119 (1)
!!!SCT: J0582
!!!YEM: Copyright 1995, estate of Helmut Schaffrath.
**kern
*ICvox
*Ivox
*M2/4
*k[b-]
*F:
{16dd
16ff
16dd
16cc
8b-
16a
16g
=1
16cc
16dd
16cc
16f
4g
=2
16dd
16ff
16dd
16cc
8b-
16a
16cc
=3
16g
16a
16g
16f
8e
8d}
=4
{8f
16f
16g
8cc
8cc
=5
16g
16a
16g
16f
8e
8d
=6
16dd
16ff
16dd
16cc
8.b-
16cc
=7
16dd
16cc
16b-
16a
4cc}
==
!!!AGN: Xiaodiao. Qingge, Aisu
!!!ONB: ESAC (Essen Associative Code) Database: CHINA
!!!AMT: simple duple
!!!AIN: vox
!!!EED: Helmut Schaffrath
!!!EEV: 1.0
*-
